SVG_Azure_All/Apache Spark Scale Setting.svg

<?xml version="1.0" encoding="UTF-8" standalone="no"?>
<!-- Generated by Microsoft Visio, SVG Export Apache Spark Scale Setting.svg Page-1 -->

<svg
   xmlns:dc="http://purl.org/dc/elements/1.1/"
   xmlns:cc="http://creativecommons.org/ns#"
   xmlns:rdf="http://www.w3.org/1999/02/22-rdf-syntax-ns#"
   xmlns:svg="http://www.w3.org/2000/svg"
   xmlns="http://www.w3.org/2000/svg"
   xmlns:sodipodi="http://sodipodi.sourceforge.net/DTD/sodipodi-0.dtd"
   xmlns:inkscape="http://www.inkscape.org/namespaces/inkscape"
   width="0.78735679in"
   height="0.78735679in"
   viewBox="0 0 56.689597 56.69"
   xml:space="preserve"
   class="st2"
   version="1.1"
   id="svg16"
   sodipodi:docname="Apache Spark Scale Setting.svg"
   style="font-size:12px;overflow:visible;color-interpolation-filters:sRGB;fill:none;fill-rule:evenodd;stroke-linecap:square;stroke-miterlimit:3"
   inkscape:version="0.92.5 (2060ec1f9f, 2020-04-08)"><metadata
   id="metadata22"><rdf:RDF><cc:Work
       rdf:about=""><dc:format>image/svg+xml</dc:format><dc:type
         rdf:resource="http://purl.org/dc/dcmitype/StillImage" /></cc:Work></rdf:RDF></metadata><defs
   id="defs20" /><sodipodi:namedview
   pagecolor="#ffffff"
   bordercolor="#666666"
   borderopacity="1"
   objecttolerance="10"
   gridtolerance="10"
   guidetolerance="10"
   inkscape:pageopacity="0"
   inkscape:pageshadow="2"
   inkscape:window-width="640"
   inkscape:window-height="480"
   id="namedview18"
   showgrid="false"
   inkscape:zoom="1.4193119"
   inkscape:cx="37.795128"
   inkscape:cy="37.786193"
   inkscape:window-x="0"
   inkscape:window-y="0"
   inkscape:window-maximized="0"
   inkscape:current-layer="svg16" />
	<style
   type="text/css"
   id="style2">
	<![CDATA[
		.st1 {fill:#0078d4;stroke:none;stroke-linecap:butt;stroke-width:34}
		.st2 {fill:none;fill-rule:evenodd;font-size:12px;overflow:visible;stroke-linecap:square;stroke-miterlimit:3}
	]]>
	</style>

	<g
   id="g14"
   transform="translate(-34.000441,-34.0043)">
		<title
   id="title4">Page-1</title>
		<g
   id="group10324-1"
   transform="translate(34,-34.0157)">
			<title
   id="title6">Apache Spark Scale Setting</title>
			<g
   id="shape10325-2">
				<title
   id="title8">path6</title>
				<path
   d="m 31.89,105.22 v 15.95 H 3.54 V 92.82 H 19.4 l 3.49,-3.54 H 0 v 35.43 h 35.43 v -22.89 z m 3.54,-37.2 h -7.08 v 3.54 h 7.08 z m 10.63,0 h -7.08 v 3.54 h 7.08 z M 3.54,78.65 H 0 v 7.08 h 3.54 z m 0,-10.63 H 0 v 7.08 h 3.54 z m 21.26,0 h -7.08 v 3.54 h 7.08 z m -10.63,0 H 7.09 v 3.54 h 7.08 z m 42.52,31.89 h -3.54 v 7.08 h 3.54 z m 0,10.63 h -3.54 v 7.08 h 3.54 z m 0,-21.26 h -3.54 v 7.08 h 3.54 z m 0,-10.63 h -3.54 v 7.08 h 3.54 z m 0,-10.63 h -7.08 v 3.54 h 3.54 v 3.54 h 3.54 z m -10.63,53.15 h -7.08 v 3.54 h 7.08 z m 10.63,0 h -7.08 v 3.54 h 7.08 z"
   class="st1"
   id="path10"
   inkscape:connector-curvature="0"
   style="fill:#0078d4;stroke:none;stroke-width:34;stroke-linecap:butt" />
			</g>
		</g>
	</g>
</svg>

<?xml version="1.0" encoding="UTF-8" standalone="no"?>
<!DOCTYPE svg PUBLIC "-//W3C//DTD SVG 1.1//EN" "http://www.w3.org/Graphics/SVG/1.1/DTD/svg11.dtd">
<!-- Generated by Microsoft Visio, SVG Export Apache Spark Scale Setting.svg Page-1 -->
<svg xmlns="http://www.w3.org/2000/svg" xmlns:xlink="http://www.w3.org/1999/xlink" xmlns:ev="http://www.w3.org/2001/xml-events"
		width="1.73185in" height="1.73206in" viewBox="0 0 124.693 124.709" xml:space="preserve" color-interpolation-filters="sRGB"
		class="st2">
	<style type="text/css">
	<![CDATA[
		.st1 {fill:#0078d4;stroke:none;stroke-linecap:butt;stroke-width:34}
		.st2 {fill:none;fill-rule:evenodd;font-size:12px;overflow:visible;stroke-linecap:square;stroke-miterlimit:3}
	]]>
	</style>

	<g>
		<title>Page-1</title>
		<g id="group10093-1" transform="translate(34,-34.0157)">
			<title>Apache Spark Scale Setting</title>
			<g id="shape10094-2">
				<title>path6</title>
				<path d="M31.89 105.22 L31.89 121.17 L3.54 121.17 L3.54 92.82 L19.4 92.82 L22.89 89.28 L0 89.28 L0 124.71 L35.43
							 124.71 L35.43 101.82 L31.89 105.22 ZM35.43 68.02 L28.35 68.02 L28.35 71.56 L35.43 71.56 L35.43 68.02
							 ZM46.06 68.02 L38.98 68.02 L38.98 71.56 L46.06 71.56 L46.06 68.02 ZM3.54 78.65 L0 78.65 L0 85.73 L3.54
							 85.73 L3.54 78.65 ZM3.54 68.02 L0 68.02 L0 75.1 L3.54 75.1 L3.54 68.02 ZM24.8 68.02 L17.72 68.02 L17.72
							 71.56 L24.8 71.56 L24.8 68.02 ZM14.17 68.02 L7.09 68.02 L7.09 71.56 L14.17 71.56 L14.17 68.02 ZM56.69
							 99.91 L53.15 99.91 L53.15 106.99 L56.69 106.99 L56.69 99.91 ZM56.69 110.54 L53.15 110.54 L53.15 117.62
							 L56.69 117.62 L56.69 110.54 ZM56.69 89.28 L53.15 89.28 L53.15 96.36 L56.69 96.36 L56.69 89.28 ZM56.69
							 78.65 L53.15 78.65 L53.15 85.73 L56.69 85.73 L56.69 78.65 ZM56.69 68.02 L49.61 68.02 L49.61 71.56 L53.15
							 71.56 L53.15 75.1 L56.69 75.1 L56.69 68.02 ZM46.06 121.17 L38.98 121.17 L38.98 124.71 L46.06 124.71
							 L46.06 121.17 ZM56.69 121.17 L49.61 121.17 L49.61 124.71 L56.69 124.71 L56.69 121.17 Z" class="st1"/>
			</g>
		</g>
	</g>
</svg>
